packages/kaspersky-hexa-ui-icons/src/iconsSVGs/32/Vpn.svg

<svg width="32" height="32" viewBox="0 0 32 32" fill="none" xmlns="http://www.w3.org/2000/svg">
<path d="M24.3598 6.76812C19.5172 2.73256 12.4829 2.73256 7.64021 6.76812C7.21593 7.12169 6.58537 7.06437 6.2318 6.64009C5.87824 6.21581 5.93556 5.58525 6.35984 5.23168C11.9442 0.578046 20.0558 0.578046 25.6402 5.23168C26.0645 5.58525 26.1218 6.21581 25.7682 6.64009C25.4147 7.06437 24.7841 7.12169 24.3598 6.76812Z" fill="black"/>
<path d="M16.2 25.4999C17.0285 25.4999 17.7 24.8283 17.7 23.9999C17.7 23.1715 17.0285 22.4999 16.2 22.4999C15.3716 22.4999 14.7 23.1715 14.7 23.9999C14.7 24.8283 15.3716 25.4999 16.2 25.4999Z" fill="black"/>
<path fill-rule="evenodd" clip-rule="evenodd" d="M11 16.9999C11 14.2385 13.2386 11.9999 16 11.9999C18.7614 11.9999 21 14.2385 21 16.9999V17.9999H22C23.6569 17.9999 25 19.3431 25 20.9999V26.9999C25 28.6568 23.6569 29.9999 22 29.9999H10C8.34317 29.9999 7.00003 28.6568 7.00003 26.9999V20.9999C7.00003 19.3431 8.34317 17.9999 10 17.9999H11V16.9999ZM19 16.9999V17.9999H13V16.9999C13 15.3431 14.3432 13.9999 16 13.9999C17.6569 13.9999 19 15.3431 19 16.9999ZM10 19.9999H22C22.5523 19.9999 23 20.4476 23 20.9999V26.9999C23 27.5522 22.5523 27.9999 22 27.9999H10C9.44774 27.9999 9.00003 27.5522 9.00003 26.9999V20.9999C9.00003 20.4476 9.44774 19.9999 10 19.9999Z" fill="black"/>
<path d="M10.6402 10.7681C13.745 8.18076 18.255 8.18076 21.3598 10.7681C21.7841 11.1217 22.4147 11.0644 22.7682 10.6401C23.1218 10.2158 23.0645 9.58525 22.6402 9.23168C18.7937 6.02624 13.2064 6.02624 9.35984 9.23168C8.93556 9.58525 8.87824 10.2158 9.2318 10.6401C9.58537 11.0644 10.2159 11.1217 10.6402 10.7681Z" fill="black"/>
</svg>

<svg xmlns="http://www.w3.org/2000/svg" width="32" height="32" fill="none" viewBox="0 0 32 32"><path fill="#000" fill-rule="evenodd" d="M24.3598 6.7683c-4.8426-4.0356-11.8769-4.0356-16.7196 0-.4243.3535-1.0548.2962-1.4084-.128-.3536-.4244-.2962-1.055.128-1.4085 5.5844-4.6536 13.696-4.6536 19.2804 0 .4243.3536.4816.9841.128 1.4084s-.9841.4816-1.4084.128m-3 3.9999c-3.1048-2.5873-7.6148-2.5873-10.7196 0-.4243.3536-1.0548.2963-1.4084-.128s-.2962-1.0548.128-1.4084c3.8466-3.2054 9.4339-3.2054 13.2804 0 .4243.3536.4816.9841.128 1.4084s-.9841.4816-1.4084.128M11 17c0-2.7614 2.2386-5 5-5s5 2.2386 5 5v1h1c1.6569 0 3 1.3432 3 3v6c0 1.6569-1.3431 3-3 3H10c-1.6568 0-3-1.3431-3-3v-6c0-1.6568 1.3432-3 3-3h1zm8 0v1h-6v-1c0-1.6568 1.3432-3 3-3s3 1.3432 3 3m3 3c.5523 0 1 .4477 1 1v6c0 .5523-.4477 1-1 1H10c-.5523 0-1-.4477-1-1v-6c0-.5523.4477-1 1-1zm-4.3 4c0 .8285-.6715 1.5-1.5 1.5s-1.5-.6715-1.5-1.5.6716-1.5 1.5-1.5 1.5.6716 1.5 1.5"/></svg>
